X:531
L:1/8
M:4/4
K:D
 D | D2 DDAAA_B | =c_BAG =F2 GA | _B2 A2 z3 =c | =cdc_B A2 E=F | AG=FE D2 z =C | =F2 A_BAGFE | 
 E2 D2 z3 |]

